material/.icons/material/filter-menu-outline.svg

<svg xmlns="http://www.w3.org/2000/svg" viewBox="0 0 24 24"><path d="M12 18.88a1 1 0 01-.29.83 1 1 0 01-1.41 0l-4-4a1 1 0 01-.3-.84V9.75L1.21 3.62a1 1 0 01.17-1.4A1 1 0 012 2h14a1 1 0 01.62.22 1 1 0 01.17 1.4L12 9.75v9.13M4 4l4 5.06v5.52l2 2V9.05L14 4m-1 12l5 5 5-5z"/></svg>

<?xml version="1.0" encoding="UTF-8"?><!DOCTYPE svg PUBLIC "-//W3C//DTD SVG 1.1//EN" "http://www.w3.org/Graphics/SVG/1.1/DTD/svg11.dtd"><svg xmlns="http://www.w3.org/2000/svg" xmlns:xlink="http://www.w3.org/1999/xlink" version="1.1" id="mdi-filter-menu-outline" width="24" height="24" viewBox="0 0 24 24"><path d="M12 18.88A1 1 0 0 1 11.71 19.71A1 1 0 0 1 10.3 19.71L6.3 15.71A1 1 0 0 1 6 14.87V9.75L1.21 3.62A1 1 0 0 1 1.38 2.22A1 1 0 0 1 2 2H16A1 1 0 0 1 16.62 2.22A1 1 0 0 1 16.79 3.62L12 9.75V18.88M4 4L8 9.06V14.58L10 16.58V9.05L14 4M13 16L18 21L23 16Z" /></svg>
